icon-themes/sifr_svg/vcl/res/closedoc.svg

<svg viewBox="0 0 8 8" xmlns="http://www.w3.org/2000/svg"><path d="m0 0v1l3 3-3 3v1h1l3-3 3 3h1v-1l-3-3 3-3v-1h-1l-3 3-3-3z" fill="#555753"/></svg>

<svg xmlns="http://www.w3.org/2000/svg" viewBox="0 0 8 8">
  <path
     style="fill:#555753"
     d="M 0 0 L 0 1 L 3 4 L 0 7 L 0 8 L 1 8 L 4 5 L 7 8 L 8 8 L 8 7 L 5 4 L 8 1 L 8 0 L 7 0 L 4 3 L 1 0 L 0 0 z "
     />
</svg>
